tools/download-figma-icons/icons/outlined-medium/profit.svg

<svg width="24" height="24" viewBox="0 0 24 24" fill="none" xmlns="http://www.w3.org/2000/svg">
<path fill-rule="evenodd" clip-rule="evenodd" d="M21.2864 0.05775C21.4702 0.13425 21.6157 0.27975 21.6922 0.4635C21.7304 0.555 21.7499 0.6525 21.7499 0.75V4.5C21.7499 4.91475 21.4147 5.25 20.9999 5.25C20.5852 5.25 20.2499 4.91475 20.2499 4.5V2.5605L14.7802 8.03025C14.5514 8.25975 14.2019 8.3145 13.9147 8.1705L9.8977 6.16275L3.53019 12.5303C3.38394 12.6765 3.19194 12.75 2.99994 12.75C2.80794 12.75 2.61594 12.6765 2.46969 12.5303C2.17644 12.237 2.17644 11.7622 2.46969 11.4698L9.21969 4.71975C9.44844 4.4895 9.79644 4.434 10.0852 4.57875L14.1022 6.58725L19.1894 1.5H17.2499C16.8352 1.5 16.4999 1.16475 16.4999 0.75C16.4999 0.33525 16.8352 0 17.2499 0H20.9999C21.0974 0 21.1949 0.0195 21.2864 0.05775ZM17.25 22.4998H20.25V11.2498H17.25V14.9998V22.4998ZM15.75 22.4998H12.75V15.7498H15.75V22.4998ZM8.25002 13.4998V17.2498V22.4998H11.25V14.9998V13.4998H8.25002ZM6.75002 22.4998H3.75002V17.9998H6.75002V22.4998ZM16.5 9.7498H21C21.4148 9.7498 21.75 10.085 21.75 10.4998V23.2498C21.75 23.6646 21.4148 23.9998 21 23.9998H16.5H12H7.50002H3.00002C2.58527 23.9998 2.25002 23.6646 2.25002 23.2498V17.2498C2.25002 16.835 2.58527 16.4998 3.00002 16.4998H6.75002V12.7498C6.75002 12.335 7.08527 11.9998 7.50002 11.9998H12C12.4148 11.9998 12.75 12.335 12.75 12.7498V14.2498H15.75V10.4998C15.75 10.085 16.0853 9.7498 16.5 9.7498Z" fill="black"/>
</svg>

<svg xmlns="http://www.w3.org/2000/svg" width="24" height="24" fill="none" viewBox="0 0 24 24"><path fill="currentColor" fill-rule="evenodd" d="M21.286.058a.75.75 0 0 1 .464.692V4.5a.75.75 0 1 1-1.5 0V2.56l-5.47 5.47a.75.75 0 0 1-.865.14L9.898 6.164 3.53 12.53a.75.75 0 0 1-1.06 0 .75.75 0 0 1 0-1.06l6.75-6.75a.75.75 0 0 1 .865-.141l4.017 2.008L19.19 1.5h-1.94a.75.75 0 1 1 0-1.5H21q.149 0 .287.058M17.25 22.5h3V11.25h-3zm-1.5 0h-3v-6.75h3zm-7.5-9v9h3v-9zm-1.5 9h-3V18h3zM16.5 9.75H21a.75.75 0 0 1 .75.75v12.75A.75.75 0 0 1 21 24H3a.75.75 0 0 1-.75-.75v-6A.75.75 0 0 1 3 16.5h3.75v-3.75A.75.75 0 0 1 7.5 12H12a.75.75 0 0 1 .75.75v1.5h3V10.5a.75.75 0 0 1 .75-.75" clip-rule="evenodd"/></svg>
